X: 106
T: Hao nanren lun buzai wuo toushang
L: 1/8
M: 2/4
K: D
d e f e/ d/ [I:setbarnb 1]| 
B A/ F/E2 | 
d e f e/ d/ | 
B4 | 
d e f e/ d/ | 
B A/ F/E2 | 
A d B A/ F/ | 
A4 |]

@@@ Tune index: 8980
